X: 10
T:Sliabh na mBan
M:3/4
L:1/8
Q:84
C:Traditional
K:G
D2 |:G4 cA |B4 A2 |G4 Bd |
g4 ag |f2 d2 B2 |c4 Bc |d3 e dB |
B2 G4 |1Bd c3 B |A4 DE/F/ :|2cA G3 F |
G4 de/f/ :|
M:2/4     %Meter
L:1/8     %
g3 B |c2 d2 |f2 e2 |
d3 A |B4 |A4 |G2 Bd |
g3 B |c2 d2 |f2 e2 |d4 |
D2 EF |
M:3/4     %Meter
L:1/8     %
G4 cA |B4 A2 |G4 Bd |
g4 ag |f2 d2 B2 |c4 Bc |d3 e dB |
B2 G4 |cA G4 |F2 G4 ||]
